icons/proper_roof_fill.svg

<svg width="48" height="48" viewBox="0 0 48 48" fill="none" xmlns="http://www.w3.org/2000/svg">
<path d="M24.7071 6.29289C24.3166 5.90237 23.6834 5.90237 23.2929 6.29289L18.9365 10.6493C19.2213 11.4089 20.0157 12 21 12C21.9844 12 22.7789 11.4088 23.0636 10.6491C23.2099 10.2587 23.5831 10 24 10C24.4169 10 24.7901 10.2587 24.9364 10.6491C25.2211 11.4088 26.0156 12 27 12C27.9843 12 28.7787 11.4089 29.0635 10.6493L24.7071 6.29289Z" fill="black"/>
<path d="M30.5417 12.1275C29.7939 13.2662 28.473 14 27 14C25.8357 14 24.7664 13.5415 24 12.7869C23.2337 13.5415 22.1643 14 21 14C19.527 14 18.2061 13.2662 17.4583 12.1275L11.4692 18.1166C11.5497 18.1594 11.6257 18.2141 11.6947 18.2807C12.1357 18.7066 12.8069 19 13.5871 19C15.0937 19 16.0581 17.9727 16.0581 17C16.0581 16.4477 16.5058 16 17.0581 16C17.6104 16 18.0581 16.4477 18.0581 17C18.0581 17.9727 19.0225 19 20.529 19C22.0356 19 23 17.9727 23 17C23 16.4477 23.4477 16 24 16C24.5523 16 25 16.4477 25 17C25 17.9727 25.9644 19 27.471 19C28.9775 19 29.9419 17.9727 29.9419 17C29.9419 16.4477 30.3896 16 30.9419 16C31.4942 16 31.9419 16.4477 31.9419 17C31.9419 17.9727 32.9063 19 34.4129 19C35.1931 19 35.8643 18.7066 36.3053 18.2807C36.3743 18.2141 36.4503 18.1594 36.5308 18.1166L30.5417 12.1275Z" fill="black"/>
<path d="M7.29289 22.2929L10.1166 19.4692C10.1647 19.5597 10.2276 19.6443 10.3053 19.7193C11.1354 20.5209 12.3115 21 13.5871 21C14.9313 21 16.2141 20.4467 17.0581 19.5282C17.9021 20.4467 19.1849 21 20.529 21C21.8732 21 23.156 20.4467 24 19.5282C24.844 20.4467 26.1268 21 27.471 21C28.8151 21 30.0979 20.4467 30.9419 19.5282C31.7859 20.4467 33.0687 21 34.4129 21C35.6885 21 36.8646 20.5209 37.6947 19.7193C37.7724 19.6443 37.8353 19.5597 37.8834 19.4692L40.7071 22.2929C40.8946 22.4804 41 22.7348 41 23C41 24.5494 39.547 26 37.5 26C36.3903 26 35.4819 25.7464 34.8827 25.3365C34.3213 24.9524 34 24.4183 34 23.6667C34 23.1144 33.5523 22.6667 33 22.6667C32.4477 22.6667 32 23.1144 32 23.6667C32 24.4183 31.6787 24.9524 31.1173 25.3365C30.5181 25.7464 29.6097 26 28.5 26C27.3903 26 26.4819 25.7464 25.8827 25.3365C25.3213 24.9524 25 24.4183 25 23.6667C25 23.1144 24.5523 22.6667 24 22.6667C23.4477 22.6667 23 23.1144 23 23.6667C23 24.4183 22.6787 24.9524 22.1173 25.3365C21.5181 25.7464 20.6097 26 19.5 26C18.3903 26 17.4819 25.7464 16.8827 25.3365C16.3213 24.9524 16 24.4183 16 23.6667C16 23.1144 15.5523 22.6667 15 22.6667C14.4477 22.6667 14 23.1144 14 23.6667C14 24.4183 13.6787 24.9524 13.1173 25.3365C12.5181 25.7464 11.6097 26 10.5 26C8.45302 26 7 24.5494 7 23C7 22.7348 7.10536 22.4804 7.29289 22.2929Z" fill="black"/>
<path d="M10.5 39.5658V28C11.8756 28 13.2172 27.6915 14.2467 26.9871C14.5256 26.7962 14.7786 26.5778 15 26.3334C15.2214 26.5778 15.4744 26.7962 15.7533 26.9871C16.7828 27.6915 18.1244 28 19.5 28C20.8756 28 22.2172 27.6915 23.2467 26.9871C23.5256 26.7962 23.7786 26.5778 24 26.3333C24.2214 26.5778 24.4744 26.7962 24.7533 26.9871C25.7828 27.6915 27.1244 28 28.5 28C29.8756 28 31.2172 27.6915 32.2467 26.9871C32.5256 26.7962 32.7786 26.5778 33 26.3333C33.2214 26.5778 33.4744 26.7962 33.7533 26.9871C34.7828 27.6915 36.1244 28 37.5 28V39.5658C37.5 40.2981 36.9566 40.7152 36.6433 40.9002C36.2887 41.1096 35.8483 41.2553 35.4172 41.3644C34.5388 41.5867 33.4102 41.7264 32.3341 41.8172C31.2463 41.909 30.1636 41.9545 29.3562 41.9772C28.9517 41.9886 28.6142 41.9943 28.3773 41.9971C28.2588 41.9986 28.1653 41.9993 28.1011 41.9996L28.0271 42L28.0022 42H28.0007L28 41V35.2631C28 33.3507 26.4038 31.5 24 31.5C21.5962 31.5 20 33.3507 20 35.2631V42H19.9978L19.9729 42L19.8989 41.9996C19.8347 41.9993 19.7412 41.9986 19.6227 41.9971C19.3858 41.9943 19.0483 41.9886 18.6438 41.9772C17.8364 41.9545 16.7537 41.909 15.6659 41.8172C14.5898 41.7264 13.4612 41.5867 12.5828 41.3644C12.1517 41.2553 11.7113 41.1096 11.3567 40.9002C11.0434 40.7152 10.5 40.2981 10.5 39.5658Z" fill="black"/>
<path d="M28 41C28 42 28.0007 42 28.0007 42L28 41Z" fill="black"/>
</svg>

<svg
  xmlns="http://www.w3.org/2000/svg"
  width="24"
  height="24"
  viewBox="0 0 24 24"
  fill="none"
  stroke="currentColor"
  stroke-width="2"
  stroke-linecap="round"
  stroke-linejoin="round"
>
  <path d="M24.707 6.293a1 1 0 0 0-1.414 0l-4.357 4.356C19.222 11.41 20.017 12 21 12s1.779-.591 2.064-1.35a1 1 0 0 1 1.872 0c.285.759 1.08 1.35 2.064 1.35s1.779-.591 2.064-1.35z" />
  <path d="M30.542 12.128C29.794 13.266 28.473 14 27 14a4.27 4.27 0 0 1-3-1.213A4.27 4.27 0 0 1 21 14c-1.473 0-2.794-.734-3.542-1.873l-5.989 5.99q.121.063.226.164c.44.426 1.112.719 1.892.719 1.507 0 2.471-1.027 2.471-2a1 1 0 1 1 2 0c0 .973.965 2 2.471 2S23 17.973 23 17a1 1 0 1 1 2 0c0 .973.964 2 2.471 2 1.506 0 2.47-1.027 2.47-2a1 1 0 1 1 2 0c0 .973.965 2 2.472 2 .78 0 1.451-.293 1.892-.72q.105-.099.226-.163z" />
  <path d="m7.293 22.293 2.824-2.824q.072.136.188.25c.83.802 2.007 1.281 3.282 1.281 1.344 0 2.627-.553 3.471-1.472.844.919 2.127 1.472 3.471 1.472s2.627-.553 3.471-1.472c.844.919 2.127 1.472 3.471 1.472s2.627-.553 3.47-1.472c.845.919 2.128 1.472 3.472 1.472 1.276 0 2.452-.48 3.282-1.28a1 1 0 0 0 .188-.25l2.824 2.823A1 1 0 0 1 41 23c0 1.55-1.453 3-3.5 3-1.11 0-2.018-.254-2.617-.663-.562-.385-.883-.919-.883-1.67a1 1 0 1 0-2 0c0 .751-.321 1.285-.883 1.67-.599.41-1.507.663-2.617.663s-2.018-.254-2.617-.663c-.562-.385-.883-.919-.883-1.67a1 1 0 1 0-2 0c0 .751-.321 1.285-.883 1.67-.599.41-1.507.663-2.617.663s-2.018-.254-2.617-.663c-.562-.385-.883-.919-.883-1.67a1 1 0 1 0-2 0c0 .751-.321 1.285-.883 1.67-.599.41-1.507.663-2.617.663C8.453 26 7 24.55 7 23a1 1 0 0 1 .293-.707" />
  <path d="M10.5 39.566V28c1.376 0 2.717-.308 3.747-1.013q.42-.287.753-.654.333.368.753.654C16.783 27.692 18.124 28 19.5 28s2.717-.308 3.747-1.013q.42-.287.753-.654.333.367.753.654C25.783 27.692 27.124 28 28.5 28s2.717-.308 3.747-1.013q.42-.287.753-.654.333.367.753.654C34.783 27.692 36.124 28 37.5 28v11.566c0 .732-.543 1.15-.857 1.334-.354.21-.795.355-1.226.464-.878.223-2.007.362-3.083.453a60.533 60.533 0 0 1-4.233.182l-.074.001h-.026L28 41v-5.737c0-1.912-1.596-3.763-4-3.763s-4 1.85-4 3.763V42h-.101l-.276-.003a61 61 0 0 1-3.957-.18c-1.076-.09-2.205-.23-3.083-.453-.431-.109-.872-.254-1.226-.464-.314-.185-.857-.602-.857-1.334" />
  <path d="M28 41v1z" />
</svg>
